X: 33567
T: Rakes Of Invercairn
R: reel
M: 4/4
K: Amajor
ec|A2 (3cBA eAcA|Bcde f2 ed|cA (3AAA eAcA|EFAB BAec|
A2 (3cBA eAcA|Bcde f2 ed|cA (3AAA eAcA|EFAB BAag||
f2 ed cdec|Bcde fB B2|f2 ed cdec|EFAB BAag|
f2 ed cdec|Bcde fB B2|f2 ae f2 ec|EFAB BA||

